assets/img/braze_icons/link-broken-01.svg

<svg fill="none" height="24" viewBox="0 0 24 24" width="24" xmlns="http://www.w3.org/2000/svg"><g clip-rule="evenodd" fill="#801ed7" fill-rule="evenodd"><path d="m9 1c.55229 0 1 .44772 1 1v2c0 .55228-.44771 1-1 1-.55228 0-1-.44772-1-1v-2c0-.55228.44772-1 1-1z"/><path d="m15 19c.5523 0 1 .4477 1 1v2c0 .5523-.4477 1-1 1s-1-.4477-1-1v-2c0-.5523.4477-1 1-1z"/><path d="m2 8h2c.55228 0 1 .44772 1 1s-.44772 1-1 1h-2c-.55228 0-1-.44771-1-1 0-.55228.44772-1 1-1z"/><path d="m19 15c0-.5523.4477-1 1-1h2c.5523 0 1 .4477 1 1s-.4477 1-1 1h-2c-.5523 0-1-.4477-1-1z"/><path d="m2.79289 2.79289c.39053-.39052 1.02369-.39052 1.41422 0l1.41421 1.41422c.39052.39052.39052 1.02369 0 1.41421s-1.02369.39052-1.41421 0l-1.41422-1.41421c-.39052-.39053-.39052-1.02369 0-1.41422z"/><path d="m18.3787 18.3787c.3905-.3905 1.0237-.3905 1.4142 0l1.4142 1.4142c.3905.3905.3905 1.0237 0 1.4142s-1.0237.3905-1.4142 0l-1.4142-1.4142c-.3905-.3905-.3905-1.0237 0-1.4142z"/><path d="m13.4142 3.51472c1.9526-1.95262 5.1185-1.95262 7.0711 0s1.9526 5.11844 0 7.07108l-2.1213 2.1213c-.3906.3905-1.0237.3905-1.4143 0-.3905-.3905-.3905-1.0237 0-1.4142l2.1214-2.12133c1.1715-1.17157 1.1715-3.07107 0-4.24264-1.1716-1.17157-3.0711-1.17157-4.2427 0l-2.1213 2.12132c-.3905.39053-1.0237.39053-1.4142 0-.3905-.39052-.3905-1.02369 0-1.41421zm-6.36395 7.77818c.39053.3905.39053 1.0237 0 1.4142l-2.12132 2.1213c-1.17157 1.1716-1.17157 3.0711 0 4.2427 1.17157 1.1715 3.07107 1.1715 4.24264 0l2.12133-2.1214c.3905-.3905 1.0237-.3905 1.4142 0 .3905.3906.3905 1.0237 0 1.4143l-2.1213 2.1213c-1.95263 1.9526-5.11846 1.9526-7.07108 0s-1.95262-5.1185 0-7.0711l2.12132-2.1213c.39052-.3905 1.02369-.3905 1.41421 0z"/></g></svg>

<svg width="24" height="24" viewBox="0 0 24 24" fill="none" xmlns="http://www.w3.org/2000/svg">
<path fill-rule="evenodd" clip-rule="evenodd" d="M9 1C9.55229 1 10 1.44772 10 2V4C10 4.55228 9.55229 5 9 5C8.44772 5 8 4.55228 8 4V2C8 1.44772 8.44772 1 9 1Z" fill="#801ED7"/>
<path fill-rule="evenodd" clip-rule="evenodd" d="M15 19C15.5523 19 16 19.4477 16 20V22C16 22.5523 15.5523 23 15 23C14.4477 23 14 22.5523 14 22V20C14 19.4477 14.4477 19 15 19Z" fill="#801ED7"/>
<path fill-rule="evenodd" clip-rule="evenodd" d="M2 8H4C4.55228 8 5 8.44772 5 9C5 9.55228 4.55228 10 4 10H2C1.44772 10 1 9.55229 1 9C1 8.44772 1.44772 8 2 8Z" fill="#801ED7"/>
<path fill-rule="evenodd" clip-rule="evenodd" d="M19 15C19 14.4477 19.4477 14 20 14H22C22.5523 14 23 14.4477 23 15C23 15.5523 22.5523 16 22 16H20C19.4477 16 19 15.5523 19 15Z" fill="#801ED7"/>
<path fill-rule="evenodd" clip-rule="evenodd" d="M2.79289 2.79289C3.18342 2.40237 3.81658 2.40237 4.20711 2.79289L5.62132 4.20711C6.01184 4.59763 6.01184 5.2308 5.62132 5.62132C5.2308 6.01184 4.59763 6.01184 4.20711 5.62132L2.79289 4.20711C2.40237 3.81658 2.40237 3.18342 2.79289 2.79289Z" fill="#801ED7"/>
<path fill-rule="evenodd" clip-rule="evenodd" d="M18.3787 18.3787C18.7692 17.9882 19.4024 17.9882 19.7929 18.3787L21.2071 19.7929C21.5976 20.1834 21.5976 20.8166 21.2071 21.2071C20.8166 21.5976 20.1834 21.5976 19.7929 21.2071L18.3787 19.7929C17.9882 19.4024 17.9882 18.7692 18.3787 18.3787Z" fill="#801ED7"/>
<path fill-rule="evenodd" clip-rule="evenodd" d="M13.4142 3.51472C15.3668 1.5621 18.5327 1.5621 20.4853 3.51472C22.4379 5.46734 22.4379 8.63316 20.4853 10.5858L18.364 12.7071C17.9734 13.0976 17.3403 13.0976 16.9497 12.7071C16.5592 12.3166 16.5592 11.6834 16.9497 11.2929L19.0711 9.17157C20.2426 8 20.2426 6.1005 19.0711 4.92893C17.8995 3.75736 16 3.75736 14.8284 4.92893L12.7071 7.05025C12.3166 7.44078 11.6834 7.44078 11.2929 7.05025C10.9024 6.65973 10.9024 6.02656 11.2929 5.63604L13.4142 3.51472ZM7.05025 11.2929C7.44078 11.6834 7.44078 12.3166 7.05025 12.7071L4.92893 14.8284C3.75736 16 3.75736 17.8995 4.92893 19.0711C6.1005 20.2426 8 20.2426 9.17157 19.0711L11.2929 16.9497C11.6834 16.5592 12.3166 16.5592 12.7071 16.9497C13.0976 17.3403 13.0976 17.9734 12.7071 18.364L10.5858 20.4853C8.63317 22.4379 5.46734 22.4379 3.51472 20.4853C1.5621 18.5327 1.5621 15.3668 3.51472 13.4142L5.63604 11.2929C6.02656 10.9024 6.65973 10.9024 7.05025 11.2929Z" fill="#801ED7"/>
</svg>
